src/images/svg/runner-icon-light.svg

<svg width="34" height="32" viewBox="0 0 34 32" fill="none" xmlns="http://www.w3.org/2000/svg">
<circle cx="16" cy="16" r="16" fill="#F4F4F4" fill-opacity="0.2"/>
<path d="M24.7293 11.907C24.4611 11.594 23.9834 11.5528 23.6631 11.8138L21.5637 13.5369L20.5983 11.1998C20.564 11.1121 20.5119 11.0384 20.452 10.9734C20.2547 10.5446 19.9122 10.1763 19.44 9.96297C19.235 9.872 19.0233 9.82326 18.8116 9.79944C18.765 9.77561 18.7229 9.7442 18.6697 9.72796L14.9754 8.72184C14.7681 8.6666 14.5597 8.70234 14.3891 8.79981C14.1862 8.86696 14.0122 9.011 13.9291 9.22002L12.538 12.7149C12.3873 13.0951 12.5801 13.5239 12.9703 13.6734C13.3582 13.8207 13.7983 13.6311 13.9501 13.2499L15.125 10.2987L16.8076 10.7557C16.7666 10.8207 16.7222 10.8814 16.689 10.9507L14.532 15.5188C14.501 15.586 14.4844 15.6542 14.4622 15.7235L11.8408 20.0177L7.45378 21.4516C6.95721 21.8144 6.85192 22.4978 7.2188 22.983C7.5879 23.4692 8.28951 23.5721 8.78497 23.2137L13.274 21.7029C13.4114 21.6054 13.5112 21.4776 13.5866 21.34C13.6431 21.2816 13.7074 21.235 13.7506 21.1624L15.3135 18.6022L18.0878 20.9123L15.1195 24.1808C14.7105 24.6313 14.7515 25.3255 15.2148 25.7241C15.677 26.1259 16.3853 26.0836 16.7965 25.6309L20.5008 21.5534C20.6161 21.4278 20.6848 21.2826 20.7313 21.131C20.759 21.0487 20.759 20.9632 20.7657 20.8776C20.7657 20.8343 20.7823 20.7953 20.779 20.7552C20.769 20.4563 20.6449 20.1661 20.3944 19.9592L17.8417 17.8322C18.0257 17.661 18.182 17.4574 18.2951 17.2181L19.9488 13.7189L20.4786 15.0975C20.5008 15.2199 20.5429 15.3401 20.6316 15.4409C20.7114 15.534 20.8134 15.5957 20.922 15.6391C20.9331 15.6445 20.9464 15.6456 20.9597 15.6488C21.0284 15.6726 21.0982 15.6954 21.1703 15.6986C21.2556 15.7062 21.3421 15.6954 21.4296 15.6715C21.4318 15.6705 21.4329 15.6705 21.4329 15.6705C21.4562 15.665 21.4795 15.6694 21.5028 15.6596C21.6258 15.6141 21.72 15.5372 21.8009 15.4474L24.8136 12.9488C25.1339 12.6857 24.9987 12.22 24.7293 11.907Z" fill="#F4F4F4"/>
<path d="M20.9191 10.1263C22.0853 10.1263 23.0306 9.20259 23.0306 8.06314C23.0306 6.9237 22.0853 6 20.9191 6C19.753 6 18.8076 6.9237 18.8076 8.06314C18.8076 9.20259 19.753 10.1263 20.9191 10.1263Z" fill="#F4F4F4"/>
</svg>

<svg xmlns="http://www.w3.org/2000/svg" width="34" height="32" fill="none"><circle cx="16" cy="16" r="16" fill="#f4f4f4" fill-opacity=".2"/><path fill="#f4f4f4" d="M24.73 11.907a.77.77 0 0 0-1.067-.093l-2.1 1.723-.965-2.337a.7.7 0 0 0-.146-.227 2.03 2.03 0 0 0-1.012-1.01 2.1 2.1 0 0 0-.628-.164c-.047-.023-.09-.055-.142-.071l-3.695-1.006a.78.78 0 0 0-.586.078.73.73 0 0 0-.46.42l-1.391 3.495c-.15.38.042.809.432.958a.765.765 0 0 0 .98-.423l1.175-2.951 1.683.457c-.041.065-.086.125-.119.195l-2.157 4.568c-.031.067-.048.135-.07.204l-2.621 4.295-4.387 1.434a1.08 1.08 0 0 0-.235 1.531c.369.486 1.07.59 1.566.23l4.489-1.51c.137-.098.237-.225.313-.363.056-.058.12-.105.164-.178l1.563-2.56 2.774 2.31-2.969 3.269a1.076 1.076 0 0 0 .096 1.543c.462.402 1.17.36 1.582-.093l3.704-4.078c.115-.125.184-.27.23-.422.028-.082.028-.168.035-.253 0-.044.016-.083.013-.123a1.06 1.06 0 0 0-.385-.796l-2.552-2.127a2 2 0 0 0 .453-.614l1.654-3.5.53 1.38a.7.7 0 0 0 .153.343.7.7 0 0 0 .29.198q.017.007.038.01a.8.8 0 0 0 .21.05.7.7 0 0 0 .26-.027l.003-.002c.023-.005.047 0 .07-.01a.75.75 0 0 0 .298-.213l3.013-2.498c.32-.263.185-.729-.085-1.042m-3.809-1.781c1.165 0 2.11-.923 2.11-2.063S22.086 6 20.92 6c-1.167 0-2.112.924-2.112 2.063s.945 2.063 2.111 2.063"/></svg>
